X:77
T:Duke of Yorks New March
C:No 77 Wm Clarke MS Feltwell, Norfolk
I:abc2nwc
M:2/2
L:1/8
K:C
g3/2g/2|e2g3/2g/2 e2g3/2g/2|f2d3/2d/2 d2f3/2f/2|
d2f3/2f/2 d2f3/2f/2|e2cc c2cE|
G2E3/2G/2 c2G3/2c/2|e2c3/2c/2 c2ga|g2e3/2g/2 f2d3/2f/2|e2c3/2c/2 c2cE|
G2E3/2G/2 c2G3/2c/2|e2c3/2c/2 c2ga|g2e3/2g/2 f2d3/2f/2|e2c3/2c/2 c2:|
|:z2|e2e3/2e/2 e2f2|g3e/2f/2 ggfe|d2d3/2d/2 d2e2|
f3d/2e/2 ffed|e2g3/2g/2 g2fe|a2c'3/2c'/2 c'2ba|
g2g3/2g/2 g2fe|d3/2d/2 e3/2e/2 f3/2f/2 d3/2d/2|
eceg c'gec|d3/2d/2 e3/2e/2 f3/2f/2 d3/2d/2|
eceg c'gec|d3/2d/2 e3/2e/2 f3/2f/2 d3/2d/2|c3G c3G|c2c3/2c/2 c2:|

